assets/Raised fist/Light/Flat/raised_fist_flat_light.svg

<svg width="32" height="32" viewBox="0 0 32 32" fill="none" xmlns="http://www.w3.org/2000/svg">
<path d="M28.9918 16.7378L29 16.7427C29 21.3306 26.3727 30 16.1136 30C3.9011 30 3.96475 19.0166 4.00481 12.1045C4.00584 11.9263 4.00686 11.7507 4.00765 11.5781C4.0026 11.5065 4.00001 11.4336 4.00001 11.3594L4 8.1875C4 5.4875 6.125 4.72917 7.1875 4.6875C8.26165 4.6875 8.96975 4.96212 9.4394 5.28589C10.0321 3.57136 11.413 3.19334 12.1929 3.15625C14.0566 3.15625 15.0235 4.02739 15.3098 4.55741C15.9264 2.48798 17.5471 2.04234 18.4483 2C20.6406 2 21.656 3.57535 21.9531 4.32812C21.9655 4.3594 21.977 4.39808 21.9879 4.44355C22.3903 2.28395 23.6719 2.10938 24.8858 2.10938C27.0782 2.10938 28.2344 4.04688 28.2344 5.375C28.2344 5.7662 28.2334 6.3417 28.2323 6.98417C28.2296 8.52291 28.2262 10.4458 28.2344 11.1406C28.2386 11.4925 28.2397 12.0535 28.2396 12.6294C28.9782 13.9614 29.0271 15.5447 28.9918 16.7378Z" fill="#FFD7C2"/>
<path d="M23.0078 5.18752C23.0078 3.44028 23.5103 2.58503 23.93 2.24127C22.814 2.4463 21.8594 3.23014 21.8594 6.10939C21.8594 7.40914 21.8866 8.73651 21.909 9.60542C18.0965 9.7307 16.786 10.845 16.3438 11.9642V5.8866C16.3438 3.75277 16.8283 2.68861 17.2432 2.24609C16.1707 2.67965 15 3.804 15 6.5414L15 10.657C15 11.2528 15.047 11.7689 15.1315 12.2156C15.03 13.2374 14.5307 14.6094 12.1929 14.6094C11.5621 14.6094 10.7911 14.2944 10.1838 13.6643V6.1734C10.1838 5.18775 10.2899 4.43326 10.4452 3.86462C9.74443 4.42524 9.15625 5.4442 9.15625 7.26233L9.15626 10.9268C9.15626 12.0115 9.50595 12.8566 10.0037 13.4621C9.56004 14.0792 8.72648 14.6094 7.1875 14.6094C6.22558 14.6094 4.39281 13.7385 4.05443 11.9968C4.09969 13.0603 4.70285 16.9687 7.38738 16.9687C8.81302 16.9687 9.66682 16.4687 10.1123 15.9062C10.3975 16.4687 11.456 16.9687 12.7676 16.9687C14.2289 16.9687 15.2981 15.9062 15.2981 15.9062C15.2981 15.9062 16.0549 16.5898 17.0809 16.8604C14.8297 17.5752 12.351 18.8586 10.2719 21.1456C10.0861 21.3499 10.1012 21.6661 10.3055 21.8519C10.5098 22.0377 10.8261 22.0226 11.0118 21.8183C13.5191 19.0602 16.6649 17.8559 19.205 17.3433C20.4737 17.0874 21.5842 17.0056 22.3758 16.9877C22.6044 16.9826 22.806 16.9828 22.9769 16.9856C23.235 17.5201 23.4244 18.1391 23.6054 18.7308C23.9799 19.955 24.3187 21.0625 25.1563 21.0625C25.2672 21.0625 25.3766 21.0573 25.4844 21.0473C26.269 20.7704 26.9375 20.152 26.9375 19.2967C26.9375 17.2387 25.6116 15.5312 22.3862 15.5312C18.1912 15.5312 18.0937 13.8813 18.0937 12.5625C18.0937 9.76563 24.75 10.1406 24.75 10.1406C24.3745 9.93503 23.9528 9.76138 23.4994 9.62395C23.3401 9.61233 23.1762 9.60398 23.0078 9.59905V5.18752Z" fill="#F1B99B"/>
</svg>

<svg xmlns="http://www.w3.org/2000/svg" width="32" height="32" fill="none"><path fill="#FFD7C2" d="m28.992 16.738.008.005C29 21.33 26.373 30 16.114 30 3.9 30 3.964 19.017 4.004 12.105l.004-.527A3.108 3.108 0 0 1 4 11.36V8.188c0-2.7 2.125-3.459 3.188-3.5 1.074 0 1.782.274 2.251.598.593-1.715 1.974-2.093 2.754-2.13 1.864 0 2.83.871 3.117 1.401.616-2.069 2.237-2.515 3.138-2.557 2.193 0 3.208 1.575 3.505 2.328.012.031.024.07.035.116.402-2.16 1.684-2.335 2.898-2.335 2.192 0 3.348 1.938 3.348 3.266 0 .391 0 .967-.002 1.61-.002 1.538-.006 3.46.002 4.156.005.351.006.912.006 1.488.738 1.332.787 2.916.752 4.109Z"/><path fill="#F1B99B" d="M23.008 5.188c0-1.748.502-2.603.922-2.947-1.116.205-2.07.99-2.07 3.868 0 1.3.027 2.628.049 3.496-3.813.126-5.123 1.24-5.565 2.36V5.886c0-2.134.484-3.198.9-3.64C16.17 2.68 15 3.803 15 6.54v4.116c0 .596.047 1.112.132 1.559-.102 1.021-.601 2.393-2.94 2.393-.63 0-1.4-.315-2.008-.945v-7.49c0-.986.106-1.74.261-2.31-.7.561-1.289 1.58-1.289 3.398v3.665c0 1.085.35 1.93.848 2.535-.444.617-1.278 1.147-2.816 1.147-.962 0-2.795-.87-3.134-2.612.046 1.063.649 4.972 3.333 4.972 1.426 0 2.28-.5 2.725-1.063.286.563 1.344 1.063 2.656 1.063 1.46 0 2.53-1.063 2.53-1.063s.757.684 1.783.954c-2.251.715-4.73 1.999-6.81 4.286a.5.5 0 1 0 .74.672c2.508-2.758 5.654-3.962 8.194-4.475a18.288 18.288 0 0 1 3.17-.355c.23-.005.431-.005.602-.002.258.534.447 1.153.628 1.745.375 1.224.714 2.331 1.551 2.331.111 0 .22-.005.328-.015.785-.277 1.453-.895 1.453-1.75 0-2.058-1.325-3.766-4.55-3.766-4.196 0-4.293-1.65-4.293-2.969 0-2.796 6.656-2.421 6.656-2.421a6.595 6.595 0 0 0-1.25-.517c-.16-.012-.324-.02-.492-.025V5.188Z"/></svg>
